X: 05031
T: Jenny's Bawbee
R:STRATHSPEY
B:RSCDS 5-3
Z:1997 by John Chambers <jc@trillian.mit.edu>
M:C
L:1/8
Q:120
%--------------------
K:D
f2 |\
"D" a>ba>g f<d d>f | "Em" g>B      e>d "A7" c<A A>f |\
"D" a>ba>g f<d d>f | "G"  B<B "A7" c>A "D"  d2 f2    |!
"D" a>ba>g f<d d>f | "Em" g>B      e>d "A7" c<A A>f |\
"D" a>ba>g f<d d>f | "G"  B<B "A7" c>A "D"  d2     |!
de|\
"D"  f>d"A7"g>e   "Bm" f<d d3/2e/4f/4 | "Em" g>Be>d "A7" c<A A3/2e/4f/4 |\
"Bm" f>d"A/C#"g>e "D"  f<d f<a        | "G"  B<B    "A7" c>A "D"    d2 de |
"D"  f>d"A7"g>e   "Bm" f<d d3/2e/4f/4 | "Em" g>Be>d "A7" c<A A3/2e/4f/4 |\
"Bm" f>d"A/C#"g>e "D"  f<d f<a        | "G"  B<B    "A7" c>A "D"    d2 |]
%%center Book05/05031-Jennys_Bawbee-5.abc

%%sep 1 1 500
%%sep 1 1 500

